icons/prospect.svg

<?xml version="1.0" encoding="UTF-8"?>
<svg width="256px" height="256px" viewBox="0 0 256 256" version="1.1" xmlns="http://www.w3.org/2000/svg" xmlns:xlink="http://www.w3.org/1999/xlink" preserveAspectRatio="xMidYMid">
    <g>
        <path d="M32,0 L224,0 C241.673112,0 256,14.326888 256,32 L256,224 C256,241.673112 241.673112,256 224,256 L32,256 C14.326888,256 0,241.673112 0,224 L0,32 C0,14.326888 14.326888,0 32,0 Z" fill="#9933CC"></path>
        <path d="M176.6208,109.6896 C173.884,103.8048 169.684,97.8872 163.8984,92.1016 C158.1128,86.316 152.1952,82.116 146.3104,79.37928 C145.9816,77.55624 145.808,75.70168 145.808,73.81544 C145.808,64.428 150.1104,55.82288 156.3688,48 C161.8664,54.87192 165.8552,62.34752 166.7432,70.4268 C167.844,68.97696 169.044,67.59416 170.3528,66.28592 C178.9576,57.6808 190.7896,53.7368 203.6976,52.30256 C202.2632,65.21032 198.3192,77.0424 189.7144,85.6472 C188.4056,86.956 187.0232,88.156 185.5736,89.2568 C193.6528,90.1448 201.128,94.1336 208,99.6312 C200.1768,105.8896 191.572,110.192 182.1848,110.192 C180.2984,110.192 178.444,110.0184 176.6208,109.6896 Z M85.4976,131.0056 C95.7064,114.104 105.176,99.1936 109.0408,95.328 C118.7216,85.6472 135.932,79.19368 156.3688,99.6312 C176.8064,120.068 170.3528,137.2784 160.672,146.9592 C160.5376,147.0936 160.3904,147.2344 160.2296,147.3816 L124.1,123.2952 L146.6168,157.0704 C120.9,173.7312 70.7448,202.2336 66.01496,205.044 C60.0196,208.6064 55.25848,209.3464 50.95592,205.044 C46.65336,200.7416 47.39336,195.9808 50.95592,189.9848 C52.78016,186.9152 65.42848,164.7072 78.63696,142.4664 L104.7384,159.8672 L85.4976,131.0056 Z" fill="#FFFFFF"></path>
    </g>
</svg>

<svg xmlns="http://www.w3.org/2000/svg" viewBox="0 0 256 256">
  <path fill="#93c" d="M32 0h192c17.673 0 32 14.327 32 32v192c0 17.673-14.327 32-32 32H32c-17.673 0-32-14.327-32-32V32C0 14.327 14.327 0 32 0z"/>
  <path fill="#fff" d="M176.62 109.69c-2.736-5.885-6.936-11.803-12.722-17.588-5.785-5.786-11.703-9.986-17.588-12.723a31.288 31.288 0 0 1-.502-5.564c0-9.387 4.302-17.992 10.56-25.815 5.498 6.872 9.487 14.348 10.375 22.427 1.101-1.45 2.301-2.833 3.61-4.141 8.605-8.605 20.437-12.55 33.345-13.983-1.435 12.907-5.379 24.74-13.984 33.344a40.391 40.391 0 0 1-4.14 3.61c8.079.888 15.554 4.877 22.426 10.374-7.823 6.259-16.428 10.561-25.815 10.561a31.29 31.29 0 0 1-5.564-.502zm-91.122 21.316c10.208-16.902 19.678-31.812 23.543-35.678 9.68-9.68 26.891-16.134 47.328 4.303 20.437 20.437 13.984 37.647 4.303 47.328-.134.135-.282.275-.442.423l-36.13-24.087 22.517 33.775c-25.717 16.661-75.872 45.164-80.602 47.974-5.995 3.562-10.757 4.302-15.06 0-4.302-4.302-3.562-9.063 0-15.06 1.825-3.069 14.473-25.277 27.682-47.518l26.101 17.401z"/>
</svg>
